X: 1
T: Boll Olles schottis i B-moll och D
O: Sweden
M: 4/4
L: 1/8
K: Bm
|::: F2 \
| "Bm"B>c de f2 f2 | f2{gf}ed B4 |1,3 "F#m"c>d cA c2 c2 | "Bm"B>c dc B2 \
                                :|2,4 "F#m"c>d cA F>A cA | "Bm"B2 B2 B2 :|
|::: FG \
| "D"A2 fe d2 AF | "G"G2 B2 B2 ed |1,3 "A7"c2 c2 c>A Bc | "D"d2 d2 dA \
                                 :|2,4 "A7"c2 c2 c>A fe | "D"d2 d2 d2 :|
